svgs/light/gif.svg

<svg xmlns="http://www.w3.org/2000/svg" viewBox="0 0 576 512"><!-- Font Awesome Pro 6.0.0-alpha2 by @fontawesome - https://fontawesome.com License - https://fontawesome.com/license (Commercial License) --><path d="M512 32H64C28.654 32 0 60.652 0 96V416C0 451.346 28.654 480 64 480H512C547.346 480 576 451.346 576 416V96C576 60.652 547.346 32 512 32ZM544 416C544 433.645 529.645 448 512 448H64C46.355 448 32 433.645 32 416V96C32 78.355 46.355 64 64 64H512C529.645 64 544 78.355 544 96V416ZM464 160H368C359.156 160 352 167.156 352 176V336C352 344.844 359.156 352 368 352S384 344.844 384 336V272H440C448.844 272 456 264.844 456 256S448.844 240 440 240H384V192H464C472.844 192 480 184.844 480 176S472.844 160 464 160ZM304 160C295.156 160 288 167.156 288 176V336C288 344.844 295.156 352 304 352S320 344.844 320 336V176C320 167.156 312.844 160 304 160ZM240 240H176C167.156 240 160 247.156 160 256S167.156 272 176 272H224V305.453C199.172 325.359 154.875 323.609 132.516 301.25C107.562 276.297 107.562 235.703 132.516 210.75C157.547 185.75 196.703 185.75 221.734 210.75C227.984 217 238.109 217 244.359 210.75S250.609 194.375 244.359 188.125C206.672 150.406 147.578 150.406 109.891 188.125C72.469 225.547 72.469 286.453 109.891 323.875C127.766 341.75 153.531 352 180.609 352C207.672 352 233.453 341.75 251.313 323.875C254.312 320.875 256 316.797 256 312.562V256C256 247.156 248.844 240 240 240Z"/></svg>

<svg xmlns="http://www.w3.org/2000/svg" viewBox="0 0 576 512"><!--! Font Awesome Pro 6.4.0 by @fontawesome - https://fontawesome.com License - https://fontawesome.com/license (Commercial License) Copyright 2023 Fonticons, Inc. --><path d="M512 64c17.7 0 32 14.3 32 32V416c0 17.7-14.3 32-32 32H64c-17.7 0-32-14.3-32-32V96c0-17.7 14.3-32 32-32H512zM64 32C28.7 32 0 60.7 0 96V416c0 35.3 28.7 64 64 64H512c35.3 0 64-28.7 64-64V96c0-35.3-28.7-64-64-64H64zM304 160c-8.8 0-16 7.2-16 16V336c0 8.8 7.2 16 16 16s16-7.2 16-16V176c0-8.8-7.2-16-16-16zm48 16v80 80c0 8.8 7.2 16 16 16s16-7.2 16-16V272h64c8.8 0 16-7.2 16-16s-7.2-16-16-16H384V192h80c8.8 0 16-7.2 16-16s-7.2-16-16-16H368c-8.8 0-16 7.2-16 16zM128 256c0-35.3 28.7-64 64-64c14.4 0 27.7 4.8 38.4 12.8c7.1 5.3 17.1 3.9 22.4-3.2s3.9-17.1-3.2-22.4c-16-12.1-36-19.2-57.6-19.2c-53 0-96 43-96 96s43 96 96 96c21.6 0 41.6-7.1 57.6-19.2c4-3 6.4-7.8 6.4-12.8V264c0-8.8-7.2-16-16-16H184c-8.8 0-16 7.2-16 16s7.2 16 16 16h40v31.4c-9.4 5.4-20.3 8.6-32 8.6c-35.3 0-64-28.7-64-64z"/></svg>
